!!!!SEGMENT: pl-kk--kk-i-2--004-005_moulu-pierre--missa-i-alma-redemptoris-mater-agnus-dei.krn
!!!cenid: 16xx:1597
!!!COM: Moulu, Pierre
!!!COM-rismID: pe30016304
!!!CDT: ~1484-~1550
!!!CNT: French
!!!OPR: Missa I [Alma redemptoris mater]
!!!OTL: Agnus Dei
!!!OMV: 005
!!!PDT:
!!!AGN: Sacred; Mass
!!!SMS-siglum: PL-Kk
!!!SMS-shelfmark: Kk.I.2
!!!SMS-shelfwork: 004-005 M
!!!NIFC-rismSourceID: 300258020
!!!NIFC-islandoraID: pl-kk:750
!!!URL-pdf-islandora: https://repozytorium.nifc.pl/islandora/object/pl-kk%3A750/datastream/PDF/view
!!!URL-scan: https://polish.musicsources.pl/pl/lokalizacje/galeria/rekopisy/5828 @EN{Scan on Polish Music Sources Website} @PL{Skany w portalu Dziedzictwo Muzyki Polskiej w otwartym dostępie}
!!!ONB-nifc: Części mszy: Kyrie, Gloria, Credo, Sanctus, Agnus Dei; skany: C: 0009-0010; A: 0110; T: 0213; B: 0313-0314;
!!!AIN: 1 alto 1 bass 2 soprn 1 tenor
!!!key:
**kern	**text	**kern	**text	**kern	**text	**kern	**text	**kern	**text
*ICvox	*	*ICvox	*	*ICvox	*	*ICvox	*	*ICvox	*
*Ibass	*	*Itenor	*	*Ialto	*	*Isoprn	*	*Isoprn	*
*part5	*part5	*part4	*part4	*part3	*part3	*part2	*part2	*part1	*part1
*staff5	*staff5	*staff4	*staff4	*staff3	*staff3	*staff2	*staff2	*staff1	*staff1
*I"BASSUS	*	*I"TENOR	*	*I"ALTVS	*	*I"DISCANTVS	*	*I"Qvuin- Vox.	*
*I'B	*	*I'T	*	*I'A	*	*I'S	*	*I'V 5	*
*clefF3	*	*clefC3	*	*clefC3	*	*clefG2	*	*clefC1	*
*k[b-]	*	*k[b-]	*	*k[b-]	*	*k[b-]	*	*k[b-]	*
*F:	*	*F:	*	*F:	*	*F:	*	*F:	*
*M2/1	*	*M2/1	*	*M2/1	*	*M2/1	*	*M2/1	*
*met(C|)	*	*met(C|)	*	*met(C|)	*	*met(C|)	*	*met(C|)	*
=1-	=1-	=1-	=1-	=1-	=1-	=1-	=1-	=1-	=1-
!	!	!	!	!	!	!LO:TX:b:rj:t=1.	!	!	!
0F	A-	0F	A-	0f	A-	1f	A-	0ryy	.
.	.	.	.	.	.	2.a/	.	.	.
!	!	!	!	!	!	!LO:TX:t=P:problem=kreska pseudotaktowa	!	!	!
.	.	.	.	.	.	4b-/	-gnuſ	.	.
=2-	=2-	=2-	=2-	=2-	=2-	=2-	=2-	=2-	=2-
1.F	-gnus	2.A/	-gnus	2.f\	-gnus	0cc	de-	0ryy	.
!	!	!LO:TX:t=P:problem=kreska pseudotaktowa	!	!LO:TX:t=P:problem=kreska pseudotaktowa	!	!	!	!	!
.	.	4G/	.	4e\	.	.	.	.	.
.	.	4A/	.	2c/	.	.	.	.	.
.	.	4B-/	.	.	.	.	.	.	.
!LO:TX:t=P:problem=kreska pseudotaktowa	!	!	!	!	!	!	!	!	!
2E/	.	1c\	de-	2e\	de-	.	.	.	.
=3-	=3-	=3-	=3-	=3-	=3-	=3-	=3-	=3-	=3-
*lig	*	*	*	*	*	*	*	*	*
1D	de-	.	.	1f	-i	2dd\	-i	0ryy	.
.	.	2B-/	.	.	.	1ff	.	.	.
!	!	!LO:TX:t=P:problem=kreska pseudotaktowa	!	!LO:TX:t=P:problem=kreska pseudotaktowa	!	!	!	!	!
1C	.	1c	-i	1g	.	.	.	.	.
!	!	!	!	!	!	!LO:TX:t=P:problem=kreska pseudotaktowa	!	!	!
.	.	.	.	.	.	2ee\	.	.	.
*Xlig	*	*	*	*	*	*	*	*	*
=4-	=4-	=4-	=4-	=4-	=4-	=4-	=4-	=4-	=4-
0F	-i	2r	.	2.f\	.	2.ff\	.	0ryy	.
.	.	2c/	qvi	.	.	.	.	.	.
.	.	.	.	4g\	.	4ee\	.	.	.
!	!	!	!	!LO:TX:t=P:problem=kreska pseudotaktowa	!	!	!	!	!
.	.	2.f\	.	1a	.	2dd\	.	.	.
.	.	.	.	.	.	2.cc\	.	.	.
.	.	4e\	.	.	.	.	.	.	.
=5-	=5-	=5-	=5-	=5-	=5-	=5-	=5-	=5-	=5-
2G\	.	2d\	tol-	2r	.	.	.	0ryy	.
.	.	.	.	.	.	4b-/	.	.	.
!LO:TX:t=P:problem=kreska pseudotaktowa	!	!	!	!	!	!	!	!	!
2A\	.	1f	.	2c/	qui	1a	.	.	.
1B-	.	.	.	2d\	.	.	.	.	.
!	!	!	!	!	!	!LO:TX:t=P:problem=kreska pseudotaktowa	!	!	!
.	.	4e\	-lis	2e\	.	2g/	.	.	.
!	!	!LO:TX:t=P:problem=kreska pseudotaktowa	!	!	!	!	!	!	!
.	.	4d\	.	.	.	.	.	.	.
=6-	=6-	=6-	=6-	=6-	=6-	=6-	=6-	=6-	=6-
2A\	.	2c/	.	4f\	tol-	2a/	.	0ryy	.
.	.	.	.	4c/	-lis	.	.	.	.
2B-\	.	1d	.	1f	.	2f/	.	.	.
1G	.	.	.	.	.	1g	.	.	.
!	!	!	!	!LO:TX:t=P:problem=kreska pseudotaktowa	!	!	!	!	!
.	.	4c/	.	2e\	.	.	.	.	.
!	!	!LO:TX:t=P:problem=kreska pseudotaktowa	!	!	!	!	!	!	!
.	.	4B-/	.	.	.	.	.	.	.
=7-	=7-	=7-	=7-	=7-	=7-	=7-	=7-	=7-	=7-
!LO:TX:t=P:problem=kreska pseudotaktowa	!	!	!	!	!	!	!	!	!
1F	.	2d\	.	2.f\	.	0a	.	0ryy	.
.	.	2c/	.	.	.	.	.	.	.
.	.	.	.	4e\	.	.	.	.	.
2r	.	2r	.	2d/	.	.	.	.	.
!	!	!	!	!LO:LB:g=original	!	!	!	!	!
1F\	.	4F/	pec-	2c/	.	.	.	.	.
!	!	!LO:TX:t=P:problem=kreska pseudotaktowa	!	!	!	!	!	!	!
.	.	4G/	.	.	.	.	.	.	.
=8-	=8-	=8-	=8-	=8-	=8-	=8-	=8-	=8-	=8-
.	.	4A/	-ca-	2r	.	2r	.	0ryy	.
.	.	4B-/	.	.	.	.	.	.	.
!	!	!	!	!LO:TX:t=P:problem=kreska pseudotaktowa	!	!	!	!	!
4E/	qui	2.c/	.	2f\	[A-	2cc\	qui	.	.
!LO:TX:t=P:problem=kreska pseudotaktowa	!	!	!	!	!	!	!	!	!
4D/	.	.	.	.	.	.	.	.	.
1C	.	.	.	2e\	-gnus	2cc\	.	.	.
.	.	4B-/	.	.	.	.	.	.	.
*	*	*custos:A	*	*custos:d	*	*	*	*	*
!	!	!LO:TX:t=P:problem=kreska pseudotaktowa	!	!LO:TX:t=P:problem=kreska pseudotaktowa	!	!	!	!	!
.	.	2G/	-ta	2c/	de-	2cc\	tol-	.	.
=9-	=9-	=9-	=9-	=9-	=9-	=9-	=9-	=9-	=9-
!	!	!LO:LB:g=original	!	!LO:LB:g=original	!	!	!	!	!
2.F/	tol-	1A	mun-	2d/	-i	2.f/	-liſ	0ryy	.
.	.	.	.	1f	qui	.	.	.	.
4E/	.	.	.	.	.	4g/	.	.	.
2D/	-lis	2F/	.	.	.	4a/	p(ec)-	.	.
.	.	.	.	.	.	4b-/	.	.	.
!	!	!	!	!LO:TX:t=P:problem=kreska pseudotaktowa	!	!	!	!	!
2C/	.	2G/	.	2e\	tol-	1cc\	-c(a)-	.	.
=10-	=10-	=10-	=10-	=10-	=10-	=10-	=10-	=10-	=10-
*custos:G	*	*	*	*	*	*	*	*	*
!LO:TX:t=P:problem=kreska pseudotaktowa	!	!	!	!	!	!	!	!	!
1F	pec-	1A	-di	2f\	.	.	.	0ryy	.
*	*	*	*	*	*	*custos:b-	*	*	*
!	!	!	!	!LO:TX:t=P:problem=kreska pseudotaktowa	!	!	!	!	!
.	.	.	.	2c/	-lis]	2a/	-ta	.	.
!LO:LB:g=original	!	!	!	!	!	!LO:LB:g=original	!	!	!
2G\	-ca-	2d\	.	2r	.	2b-/	.	.	.
!	!	!LO:TX:t=P:problem=kreska pseudotaktowa	!	!	!	!	!	!	!
2C/	-ta	2c/	.	1g\	p(ec)-	2.cc\	mun-	.	.
=11-	=11-	=11-	=11-	=11-	=11-	=11-	=11-	=11-	=11-
1F	mun-	2.A/	.	.	.	.	.	0ryy	.
.	.	.	.	.	.	4b-/	.	.	.
.	.	.	.	2f\	-c(a)-	2a/	-di	.	.
.	.	4B-/	.	.	.	.	.	.	.
!LO:TX:t=P:problem=kreska pseudotaktowa	!	!	!	!	!	!	!	!	!
1C	-di	1c	.	2f\	-ta	1g	.	.	.
!	!	!	!	!LO:TX:t=P:problem=kreska pseudotaktowa	!	!	!	!	!
.	.	.	.	2e\	m(un)-	.	.	.	.
=12-	=12-	=12-	=12-	=12-	=12-	=12-	=12-	=12-	=12-
!	!	!	!	!	!	!LO:TX:t=P:problem=kreska pseudotaktowa	!	!	!
2r	.	4F/	.	4d\	-di	1f	.	0ryy	.
.	.	4G/	.	4c/	.	.	.	.	.
!	!	!	!	!LO:TX:t=P:problem=kreska pseudotaktowa	!	!	!	!	!
2F/	.	4A/	.	2f\	.	.	.	.	.
.	.	4B-/	.	.	.	.	.	.	.
2A\	.	2c/	.	2.e\	.	2r	.	.	.
!LO:TX:t=P:problem=kreska pseudotaktowa	!	!LO:TX:t=P:problem=kreska pseudotaktowa	!	!	!	!	!	!	!
2A\	.	2F/	.	.	.	2cc\	Mi-	.	.
.	.	.	.	8d/	.	.	.	.	.
!	!	!	!	!LO:TX:t=P:problem=kreska pseudotaktowa	!	!	!	!	!
.	.	.	.	8c/	.	.	.	.	.
=13-	=13-	=13-	=13-	=13-	=13-	=13-	=13-	=13-	=13-
2G\	.	2r	.	2d\	.	2b-\	-ſe-	0ryy	.
1F	.	2.A/	mi-	2.f\	.	1a	-re-	.	.
.	.	4B-/	-ſe-	4e\	.	.	.	.	.
!	!	!	!	!LO:TX:t=P:problem=kreska pseudotaktowa	!	!LO:TX:t=P:problem=kreska pseudotaktowa	!	!	!
2A\	.	4c/	.	2c/	.	2f/	-re	.	.
.	.	4A/	-re-	.	.	.	.	.	.
=14-	=14-	=14-	=14-	=14-	=14-	=14-	=14-	=14-	=14-
1G	.	2.B-/	-re	2.d\	.	1b-	.	0ryy	.
!	!	!LO:TX:t=P:problem=kreska pseudotaktowa	!	!	!	!	!	!	!
.	.	4c/	.	4e\	.	.	.	.	.
!LO:TX:t=P:problem=kreska pseudotaktowa	!	!	!	!LO:TX:t=P:problem=kreska pseudotaktowa	!	!	!	!	!
1F	.	2d\	no-	1f	.	2a/	.	.	.
.	.	2A/	-bis	.	.	2f/	.	.	.
=15-	=15-	=15-	=15-	=15-	=15-	=15-	=15-	=15-	=15-
2r	.	2B-/	.	2r	.	2g/	no-	0ryy	.
!	!	!LO:TX:t=P:problem=kreska pseudotaktowa	!	!	!	!	!	!	!
2F/	Mi-	2c/	.	2F/	mi-	2.a/	-bis	.	.
2F/	-ſe-	2F/	.	2c/	.	.	.	.	.
.	.	.	.	.	.	4g/	.	.	.
!	!	!	!	!LO:TX:t=P:problem=kreska pseudotaktowa	!	!	!	!	!
2F/	-re-	2A/	.	2B-/	-ſe	1f/	.	.	.
=16-	=16-	=16-	=16-	=16-	=16-	=16-	=16-	=16-	=16-
1B-	-(re)	1G	.	1.d	re-	.	.	0ryy	.
.	.	.	.	.	.	2e/	.	.	.
!	!	!LO:TX:t=P:problem=kreska pseudotaktowa	!	!	!	!	!	!	!
!	!	!LO:N:vis=00	!	!	!	!	!	!	!
0BB-	no-	[y0F/	.	.	.	[y00f;	.	.	.
.	.	.	.	1c\	-(re)	.	.	.	.
=17-	=17-	=17-	=17-	=17-	=17-	=17-	=17-	=17-	=17-
.	.	.	.	.	.	.	.	0ryy	.
.	.	.	.	1d	no-	.	.	.	.
*custos:F	*	*	*	*	*	*	*	*	*
!LO:N:vis=00	!	!	!	!	!	!	!	!	!
0.F;\	-bis	0.F]yy	.	.	.	.	.	.	.
.	.	.	.	4c/	-bis	.	.	.	.
.	.	.	.	4B-/	.	.	.	.	.
=18-	=18-	=18-	=18-	=18-	=18-	=18-	=18-	=18-	=18-
*	*	*	*	*custos:A	*	*	*	*	*
!	!	!	!	!LO:TX:t=P:problem=skreślonych kilka nut	!	!	!	!	!
!	!	!	!	!LO:N:vis=00	!	!	!	!	!
.	.	.	.	0A	.	.	.	0ryy	.
.	.	.	.	.	.	1f]yy	.	.	.
=19||-	=19||-	=19	=19||-	=19||-	=19||-	=19||-	=19||-	=19||-	=19||-
*	*	*M2/1	*	*	*	*	*	*	*
*	*	*met(C|)	*	*	*	*	*	*	*
!LO:TX:b:t=2.:rj	!	!	!	!	!	!	!	!	!
!LO:PB:g=original	!	!	!	!LO:PB:g=original	!	!LO:TX:a:t=Secund(us) Agnus Dei\nTacet.\npro 3to Verte Cito	!	!	!
0F	A-	0c	A-	0.A	A-	0ryy	.	0ryy	.
=20-	=20-	=20-	=20-	=20-	=20-	=20-	=20-	=20-	=20-
!LO:TX:t=P:problem=kreska pseudotaktowa	!	!	!	!LO:TX:t=P:problem=kreska pseudotaktowa	!	!	!	!	!
1F	-gnus	1d	-gnus	.	.	0ryy	.	0ryy	.
*lig	*	*	*	*	*	*	*	*	*
!	!	!LO:TX:t=P:problem=kreska pseudotaktowa	!	!	!	!	!	!	!
1G	DE	1e	.	1B-	-gnus	.	.	.	.
=21-	=21-	=21-	=21-	=21-	=21-	=21-	=21-	=21-	=21-
1F	.	1.f	.	1c	.	0ryy	.	0ryy	.
*Xlig	*	*	*	*	*	*	*	*	*
1B-	I	.	.	2.d/	.	.	.	.	.
.	.	4e\	de-	.	.	.	.	.	.
!	!	!	!	!LO:TX:t=P:problem=kreska pseudotaktowa	!	!	!	!	!
.	.	4d\	.	4e\	.	.	.	.	.
=22-	=22-	=22-	=22-	=22-	=22-	=22-	=22-	=22-	=22-
2A/	.	2c/	-i	4f\	de-	0ryy	.	0ryy	.
.	.	.	.	4c/	-i	.	.	.	.
2F/	.	1d	.	1f	.	.	.	.	.
1G	.	.	.	.	.	.	.	.	.
!	!	!	!	!LO:TX:t=P:problem=kreska pseudotaktowa	!	!	!	!	!
.	.	4c/	.	2e\	.	.	.	.	.
.	.	4B-/	.	.	.	.	.	.	.
=23-	=23-	=23-	=23-	=23-	=23-	=23-	=23-	=23-	=23-
!LO:TX:t=P:problem=kreska pseudotaktowa	!	!LO:TX:t=P:problem=kreska pseudotaktowa	!	!	!	!	!	!	!
0F|<	.	1A	.	1.f	.	0ryy	.	0ryy	.
.	.	2r	.	.	.	.	.	.	.
*	*	*	*ij	*	*	*	*	*	*
.	.	2c/	A-	4e\	.	.	.	.	.
.	.	.	.	4d\	.	.	.	.	.
=24-	=24-	=24-	=24-	=24-	=24-	=24-	=24-	=24-	=24-
2r	.	2c/	-gnus	2e\	.	0ryy	.	0ryy	.
!	!	!LO:TX:t=P:problem=kreska pseudotaktowa	!	!	!	!	!	!	!
2F/	qui	2c/	.	2f\	.	.	.	.	.
!	!	!	!	!LO:TX:t=P:problem=kreska pseudotaktowa	!	!	!	!	!
2F/	.	1f	De-	1c	.	.	.	.	.
2F/	tol-	.	.	.	.	.	.	.	.
=25-	=25-	=25-	=25-	=25-	=25-	=25-	=25-	=25-	=25-
1.B-	-lis	2e\	.	2r	.	0ryy	.	0ryy	.
.	.	1f	.	2d\	qui	.	.	.	.
.	.	.	.	2d\	.	.	.	.	.
!LO:TX:t=P:problem=kreska pseudotaktowa	!	!	!	!	!	!	!	!	!
2B-\	p(ec)-	4e\	.	2d\	tol-	.	.	.	.
!	!	!LO:TX:t=P:problem=kreska pseudotaktowa	!	!	!	!	!	!	!
.	.	4d\	.	.	.	.	.	.	.
=26-	=26-	=26-	=26-	=26-	=26-	=26-	=26-	=26-	=26-
2A\	-c(a)-	2c/	.	1.f	-lis	0ryy	.	0ryy	.
2.B-\	-ta	2.d\	.	.	.	.	.	.	.
4A\	.	4c/	.	.	.	.	.	.	.
!LO:TX:t=P:problem=kreska pseudotaktowa	!	!	!	!	!	!	!	!	!
2F/	mun-	4B-/	.	2f\	pec-	.	.	.	.
!	!	!LO:TX:t=P:problem=kreska pseudotaktowa	!	!	!	!	!	!	!
.	.	4A/	.	.	.	.	.	.	.
=27-	=27-	=27-	=27-	=27-	=27-	=27-	=27-	=27-	=27-
1G	-di	1B-	.	2d\	-ca-	0ryy	.	0ryy	.
.	.	.	.	2e\	-ta	.	.	.	.
2.F/	.	2A/	.	2f\	.	.	.	.	.
!	!	!	!	!LO:TX:t=P:problem=kreska pseudotaktowa	!	!	!	!	!
.	.	2F/	.	2.a\	.	.	.	.	.
4E/	.	.	.	.	.	.	.	.	.
=28-	=28-	=28-	=28-	=28-	=28-	=28-	=28-	=28-	=28-
!LO:TX:t=P:problem=kreska pseudotaktowa	!	!	!	!	!	!	!	!	!
1D	.	2F/	.	.	.	0ryy	.	0ryy	.
.	.	.	.	4g\	.	.	.	.	.
.	.	2F/	.	4f\	.	.	.	.	.
*	*	*	*	*custos:d	*	*	*	*	*
!	!	!	!	!LO:TX:t=P:problem=kreska pseudotaktowa	!	!	!	!	!
.	.	.	.	4e\	.	.	.	.	.
!	!	!	!	!LO:LB:g=original	!	!	!	!	!
2r	.	2B-/	.	2d\	.	.	.	.	.
2C/	Mi-	2A/	.	2.e\	.	.	.	.	.
=29-	=29-	=29-	=29-	=29-	=29-	=29-	=29-	=29-	=29-
2C/	-ſe-	2G/	.	.	.	0ryy	.	0ryy	.
.	.	.	.	4d\	.	.	.	.	.
*	*	*custos:F	*	*	*	*	*	*	*
!	!	!LO:TX:t=P:problem=kreska pseudotaktowa	!	!	!	!	!	!	!
2C/	-re-	2G/	.	4c/	.	.	.	.	.
.	.	.	.	4B-/	.	.	.	.	.
1.F	-(re)	2.F/	.	2A/	.	.	.	.	.
.	.	.	.	2.d\	.	.	.	.	.
.	.	4G/	.	.	.	.	.	.	.
=30-	=30-	=30-	=30-	=30-	=30-	=30-	=30-	=30-	=30-
!	!	!LO:TX:t=P:problem=kreska pseudotaktowa	!	!	!	!	!	!	!
.	.	1A	-i	.	.	0ryy	.	0ryy	.
*	*	*	*Xij	*	*	*	*	*	*
.	.	.	.	4c/	.	.	.	.	.
*custos:E	*	*	*	*	*	*	*	*	*
!LO:TX:t=P:problem=kreska pseudotaktowa	!	!	!	!	!	!	!	!	!
2F/	no-	.	.	4B-/	.	.	.	.	.
.	.	.	.	4A/	.	.	.	.	.
!LO:LB:g=original	!	!	!	!	!	!	!	!	!
2E/	-bis	2r	.	2G/	.	.	.	.	.
2.F/	.	2A/	qui	2.d\	.	.	.	.	.
=31-	=31-	=31-	=31-	=31-	=31-	=31-	=31-	=31-	=31-
.	.	2A/	.	.	.	0ryy	.	0ryy	.
4E/	.	.	.	4c/	m(un)-	.	.	.	.
2C/	.	2G/	.	1c	-di	.	.	.	.
1D	.	2.F/	tol-	.	.	.	.	.	.
!	!	!	!	!LO:SIC:v:s=2Bn:t=musica ficta?	!	!	!	!	!
.	.	.	.	2B-/	.	.	.	.	.
.	.	4G/	.	.	.	.	.	.	.
=32-	=32-	=32-	=32-	=32-	=32-	=32-	=32-	=32-	=32-
!LO:TX:t=P:problem=kreska pseudotaktowa	!	!	!	!	!	!	!	!	!
1C	.	4A/	-lis	0.c	.	0ryy	.	0ryy	.
.	.	4B-/	pec-	.	.	.	.	.	.
.	.	2c/	-ca-	.	.	.	.	.	.
!	!	!LO:TX:t=P:problem=kreska pseudotaktowa	!	!	!	!	!	!	!
2r	.	1F	-ta	.	.	.	.	.	.
*	*ij	*	*	*	*	*	*	*	*
1F\	Mi-	.	.	.	.	.	.	.	.
=33-	=33-	=33-	=33-	=33-	=33-	=33-	=33-	=33-	=33-
!	!	!	!	!LO:TX:t=P:problem=kreska pseudotaktowa	!	!	!	!	!
.	.	2r	.	.	.	0ryy	.	0ryy	.
2E/	-se-	1c	p(ec)-	.	.	.	.	.	.
*lig	*	*	*	*	*	*	*	*	*
1D	-re-	.	.	2r	.	.	.	.	.
.	.	2B-/	.	1f\	mi-	.	.	.	.
=34-	=34-	=34-	=34-	=34-	=34-	=34-	=34-	=34-	=34-
1C	.	2A/	-c(a)-	.	.	0ryy	.	0ryy	.
!	!	!LO:TX:t=P:problem=kreska pseudotaktowa	!	!LO:TX:t=P:problem=kreska pseudotaktowa	!	!	!	!	!
.	.	2G/	-ta	2e\	-ſe-	.	.	.	.
*Xlig	*	*	*	*	*	*	*	*	*
2D/	-re	4F/	mun-	1d	-re-	.	.	.	.
.	.	4G/	.	.	.	.	.	.	.
2.F/	no-	4A/	.	.	.	.	.	.	.
.	.	4B-/	.	.	.	.	.	.	.
=35-	=35-	=35-	=35-	=35-	=35-	=35-	=35-	=35-	=35-
.	.	4c/	.	1c	-re	0ryy	.	0ryy	.
4E/	.	4F/	-di	.	.	.	.	.	.
2C/	.	1c	mi-	.	.	.	.	.	.
2F/	.	.	.	1d	.	.	.	.	.
!	!	!LO:TX:t=P:problem=kreska pseudotaktowa	!	!	!	!	!	!	!
2G\	.	2B-/	.	.	.	.	.	.	.
=36-	=36-	=36-	=36-	=36-	=36-	=36-	=36-	=36-	=36-
!LO:TX:t=P:problem=kreska pseudotaktowa	!	!	!	!	!	!	!	!	!
1C	-bis	2c/	-ſe-	2e\	.	0ryy	.	0ryy	.
.	.	4B-/	.	4d\	.	.	.	.	.
!	!	!	!	!LO:TX:t=P:problem=kreska pseudotaktowa	!	!	!	!	!
.	.	4A/	-re-	4c/	.	.	.	.	.
2r	.	2G/	-re	1d	.	.	.	.	.
1F\	Mi-	1A/	.	.	.	.	.	.	.
=37-	=37-	=37-	=37-	=37-	=37-	=37-	=37-	=37-	=37-
.	.	.	.	2c/	.	0ryy	.	0ryy	.
!	!	!LO:TX:t=P:problem=kreska pseudotaktowa	!	!	!	!	!	!	!
2E/	-se-	2G/	.	2.g\	.	.	.	.	.
*lig	*	*	*	*	*	*	*	*	*
1D	-re-	2A/	.	.	.	.	.	.	.
.	.	.	.	4f\	.	.	.	.	.
.	.	2B-/	no-	1f\	.	.	.	.	.
=38-	=38-	=38-	=38-	=38-	=38-	=38-	=38-	=38-	=38-
1C	.	2G/	.	.	.	0ryy	.	0ryy	.
*	*	*	*	*custos:f	*	*	*	*	*
!	!	!	!	!LO:TX:t=P:problem=kreska pseudotaktowa	!	!	!	!	!
.	.	2A/	.	2e\	.	.	.	.	.
*	*	*custos:F	*	*	*	*	*	*	*
!	!	!LO:TX:t=P:problem=kreska pseudotaktowa	!	!	!	!	!	!	!
*Xlig	*	*	*	*	*	*	*	*	*
2.D/	-re	2F/	.	2f\	.	.	.	.	.
!	!	!LO:PB:g=original	!	!	!	!	!	!	!
.	.	1c\	.	1d\	.	.	.	.	.
4E/	.	.	.	.	.	.	.	.	.
=39-	=39-	=39-	=39-	=39-	=39-	=39-	=39-	=39-	=39-
1F	no-	.	.	.	.	0ryy	.	0ryy	.
!	!	!LO:TX:t=P:problem=kreska pseudotaktowa	!	!	!	!	!	!	!
.	.	2B-/	.	4c/	.	.	.	.	.
.	.	.	.	4B-/	.	.	.	.	.
!	!	!	!	!LO:TX:t=P:problem=kreska pseudotaktowa	!	!	!	!	!
[y00F\	-bis	2A/	.	1A	.	.	.	.	.
*	*Xij	*	*	*	*	*	*	*	*
.	.	2G/	.	.	.	.	.	.	.
=40-	=40-	=40-	=40-	=40-	=40-	=40-	=40-	=40-	=40-
.	.	2F/	.	2r	.	0ryy	.	0ryy	.
.	.	1B-	.	1f	.	.	.	.	.
.	.	4A/	-bis	2e\	.	.	.	.	.
.	.	4G/	.	.	.	.	.	.	.
=41-	=41-	=41-	=41-	=41-	=41-	=41-	=41-	=41-	=41-
.	.	2.A/	.	1d	.	0ryy	.	0ryy	.
.	.	4B-/	.	.	.	.	.	.	.
!	!	!LO:N:vis=00	!	!	!	!	!	!	!
0.F]yy	.	0.A/	.	1c	.	.	.	.	.
=42-	=42-	=42-	=42-	=42-	=42-	=42-	=42-	=42-	=42-
!	!	!	!	!LO:N:vis=00	!	!	!	!	!
.	.	.	.	0c\	.	0ryy	.	0ryy	.
*custos:F	*	*	*	*	*	*	*	*	*
=43||-	=43||-	=43||-	=43||-	=43||-	=43||-	=43||-	=43||-	=43||-	=43||-
*	*	*clefC3	*	*	*	*	*	*	*
*	*	*k[b-]	*	*	*	*	*	*	*
*	*	*M2/1	*	*	*	*	*	*	*
*	*	*met(C|)	*	*met(C|)	*	*	*	*	*
!LO:TX:b:t=3.:rj	!	!	!	!	!	!LO:PB:g=original	!	!LO:TX:b:t=3.:rj	!
1.F	A-	1.f	A-	1c	A-	0cc	A-	2.a/	A-
.	.	.	.	.	.	.	.	4g/	.
.	.	.	.	2c/	.	.	.	4a/	-gnus
.	.	.	.	.	.	.	.	4b-/	.
2C/	-gnus	2e/	.	2.g\	-gnus	.	.	1cc	de-
=44-	=44-	=44-	=44-	=44-	=44-	=44-	=44-	=44-	=44-
1G	.	1d	-gnus	.	.	1dd	-gnus	.	.
.	.	.	.	4f\	.	.	.	.	.
!	!	!	!	!LO:TX:t=P:problem=kreska pseudotaktowa	!	!	!	!LO:TX:t=P:problem=kreska pseudotaktowa	!
.	.	.	.	2d\	de-	.	.	2b-/	.
!LO:TX:t=P:problem=kreska pseudotaktowa	!	!LO:TX:t=P:problem=kreska pseudotaktowa	!	!	!	!	!	!	!
1C	de-	1c	.	4g\	-i	1ee	de-	0cc	-i
.	.	.	.	4f\	.	.	.	.	.
.	.	.	.	4e\	.	.	.	.	.
.	.	.	.	4d\	.	.	.	.	.
=45-	=45-	=45-	=45-	=45-	=45-	=45-	=45-	=45-	=45-
!	!	!	!	!	!	!LO:TX:t=P:problem=kreska pseudotaktowa	!	!	!
0F	-i	2.A/	de-	2c/	.	1ff	-i	.	.
.	.	.	.	2.f\	.	.	.	.	.
.	.	4G/	-i	.	.	.	.	.	.
.	.	4A/	.	.	.	2r	.	1cc	qui
.	.	4B-/	.	4e\	.	.	.	.	.
*	*	*	*	*custos:d	*	*	*	*	*
!	!	!	!	!LO:TX:t=P:problem=kreska pseudotaktowa	!	!	!	!	!
.	.	1c\	.	2f\	.	2f/	qui	.	.
=46-	=46-	=46-	=46-	=46-	=46-	=46-	=46-	=46-	=46-
!	!	!	!	!LO:LB:g=original	!	!	!	!	!
1G	.	.	.	2d\	.	2b-/	.	2g/	tol-
!	!	!LO:TX:t=P:problem=kreska pseudotaktowa	!	!	!	!LO:TX:t=P:problem=kreska pseudotaktowa	!	!LO:TX:t=P:problem=kreska pseudotaktowa	!
.	.	2B-/	.	1e	.	2g/	tol-	2b-/	.
1A	.	0c	.	.	.	1.cc	-lis	1a	-lis
!	!	!	!	!LO:TX:t=P:problem=kreska pseudotaktowa	!	!	!	!	!
.	.	.	.	2c/	.	.	.	.	.
=47-	=47-	=47-	=47-	=47-	=47-	=47-	=47-	=47-	=47-
!	!	!LO:TX:t=P:problem=kreska pseudotaktowa	!	!	!	!	!	!	!
1F	qui	.	.	2r	.	.	.	1a	p(ec)-
.	.	.	.	2c/	.	4b-/	p(ec)-	.	.
.	.	.	.	.	.	4a/	-c(a)-	.	.
1G	.	2r	.	1.g	.	1b-	-ta	2g/	.
!	!	!	!	!	!	!	!	!LO:TX:t=P:problem=kreska pseudotaktowa	!
.	.	2G/	qui	.	.	.	.	2dd\	-c(a)-
=48-	=48-	=48-	=48-	=48-	=48-	=48-	=48-	=48-	=48-
*	*	*custos:A	*	*	*	*	*	*	*
!	!	!LO:TX:t=P:problem=kreska pseudotaktowa	!	!	!	!	!	!	!
2C/	tol-	1G	tol-	.	.	2.cc/	m(un)-	2ee\	-ta
2C/	-lis	.	.	4f\	.	.	.	1cc	m(un)-
!	!	!	!	!LO:TX:t=P:problem=kreska pseudotaktowa	!	!	!	!	!
.	.	.	.	4e\	.	4b-/	.	.	.
!	!	!	!	!	!	!LO:TX:t=P:problem=kreska pseudotaktowa	!	!	!
2F/	p(ec)-	2A/	-lis	1f	.	1a	-di	.	.
2F/	-c(a)-	1c\	pec-	.	.	.	.	4b-/	.
.	.	.	.	.	.	.	.	4a/	.
=49-	=49-	=49-	=49-	=49-	=49-	=49-	=49-	=49-	=49-
!	!	!	!	!	!	!	!	!LO:TX:t=P:problem=kreska pseudotaktowa	!
1G	-ta	.	.	1d	.	2r	.	1b-	.
.	.	4B-/	-ca-	.	.	2g/	.	.	.
!	!	!LO:TX:t=P:problem=kreska pseudotaktowa	!	!	!	!	!	!	!
.	.	4A/	.	.	.	.	.	.	.
1G	m(un)-	1B-	-ta	2d\	qui	2g/	.	1b-	-di
!	!	!	!	!LO:TX:t=P:problem=kreska pseudotaktowa	!	!LO:TX:t=P:problem=kreska pseudotaktowa	!	!	!
.	.	.	.	2e\	.	2g/	.	.	.
=50-	=50-	=50-	=50-	=50-	=50-	=50-	=50-	=50-	=50-
!LO:TX:t=P:problem=kreska pseudotaktowa	!	!	!	!	!	!	!	!	!
1F	-di	2c/	.	2f\	tol-	2a/	.	1a	[mun-
.	.	2A/	.	2F/	-lis	1cc	.	.	.
!	!	!	!	!LO:TX:t=P:problem=kreska pseudotaktowa	!	!	!	!LO:TX:t=P:problem=kreska pseudotaktowa	!
2r	.	0d	.	0.G	.	.	.	1g	-di]
!	!	!	!	!	!	!LO:SIC:v:s=4bn/:t=musica ficta?	!	!	!
2G\	.	.	.	.	.	4b-/	.	.	.
.	.	.	.	.	.	4a/	.	.	.
=51-	=51-	=51-	=51-	=51-	=51-	=51-	=51-	=51-	=51-
!	!	!	!	!	!	!LO:SIC:v:s=2bn/:t=musica ficta?	!	!	!
1G	.	.	.	.	.	2b-/	.	2r	.
!	!	!	!	!	!	!LO:SIC:v:s=2bn/:t=musica ficta?	!	!	!
*	*	*	*	*	*	*	*	*	*ij
!	!	!	!	!	!	!	!	!LO:TX:t=P:problem=kreska pseudotaktowa	!
.	.	.	.	.	.	2b-/	.	2g/	A-
2c\	.	2.c/	mun-	.	.	0cc	.	1g	-gnus
2C/	.	.	.	.	.	.	.	.	.
.	.	4B-/	.	.	.	.	.	.	.
=52-	=52-	=52-	=52-	=52-	=52-	=52-	=52-	=52-	=52-
!	!	!	!	!	!	!LO:TX:t=P:problem=kreska pseudotaktowa	!	!	!
1C	.	4A/	.	2r	.	.	.	2a/	De-
.	.	4G/	.	.	.	.	.	.	.
.	.	2A/	-di	2c/	p(ec)-	.	.	1cc	-i
!LO:TX:t=P:problem=kreska pseudotaktowa	!	!	!	!	!	!	!	!	!
1G	.	2G/	.	1d	-c(a)-	2r	.	.	.
!	!	!LO:SIC:v:s=2.Bn/:t=musica ficta?	!	!	!	!	!	!	!
.	.	2.B-/	.	.	.	2dd\	Do-	4b-/	.
!	!	!	!	!	!	!	!	!LO:LB:g=original	!
.	.	.	.	.	.	.	.	4a/	.
=53-	=53-	=53-	=53-	=53-	=53-	=53-	=53-	=53-	=53-
!	!	!	!	!LO:TX:t=P:problem=kreska pseudotaktowa	!	!	!	!	!
2r	.	.	.	1d	-ta	2dd\	-na	1b-	qui
.	.	4A/	.	.	.	.	.	.	.
!	!	!LO:TX:t=P:problem=kreska pseudotaktowa	!	!	!	!	!	!	!
2G\	do-	2G/	.	.	.	2dd\	no-	.	.
2c\	-na	2r	.	1c	m(un)-	0ee	-b(is)	2cc\	tol-
2.C/	.	2c/	do-	.	.	.	.	4b-/	-lis
.	.	.	.	.	.	.	.	4a/	pec-
=54-	=54-	=54-	=54-	=54-	=54-	=54-	=54-	=54-	=54-
!	!	!	!	!	!	!LO:TX:t=P:problem=kreska pseudotaktowa	!	!	!
.	.	2c/	.	1e	.	.	.	2.g/	-ca-
4D/	.	.	.	.	.	.	.	.	.
!	!	!LO:TX:t=P:problem=kreska pseudotaktowa	!	!	!	!	!	!	!
4E/	no-	2c/	-na	.	.	.	.	.	.
*custos:G	*	*	*	*	*	*	*	*custos:b	*
!LO:TX:t=P:problem=kreska pseudotaktowa	!	!	!	!	!	!	!	!LO:LB:g=original	!
4C/	.	.	.	.	.	.	.	4a/	.
*	*	*	*	*	*	*custos:dd	*	*	*
!	!	!	!	!	!	!	!	!LO:LB:g=original	!
2.G\	-bis	2d\	.	0d	-di	2r	.	2b-\	-ta
!	!	!	!	!	!	!LO:LB:g=original	!	!	!
.	.	2G/	.	.	.	2dd\	do-	1cc	mun-
4F/	.	.	.	.	.	.	.	.	.
=55-	=55-	=55-	=55-	=55-	=55-	=55-	=55-	=55-	=55-
!	!	!LO:SIC:v:s=2.Bn/:t=musica ficta?	!	!	!	!	!	!	!
1G	pa-	2.B-/	no-	.	.	2dd\	-na	.	.
!	!	!	!	!	!	!LO:TX:t=P:problem=kreska pseudotaktowa	!	!	!
.	.	.	.	.	.	2dd\	no-	2b-\	.
.	.	4A/	.	.	.	.	.	.	.
!	!	!	!	!LO:TX:t=P:problem=kreska pseudotaktowa	!	!	!	!LO:TX:t=P:problem=kreska pseudotaktowa	!
0C	-ce(m)	2G/	-bis	1c	.	4ee\	-b(is)	0cc	-di
*	*	*	*	*	*	*	*	*	*Xij
.	.	.	.	.	.	4dd\	.	.	.
.	.	4c/	pa-	.	.	4ee\	.	.	.
!	!	!LO:TX:t=P:problem=kreska pseudotaktowa	!	!	!	!	!	!	!
.	.	4d\	.	.	.	4ff\	.	.	.
=56-	=56-	=56-	=56-	=56-	=56-	=56-	=56-	=56-	=56-
!LO:TX:t=P:problem=kreska pseudotaktowa	!	!	!	!	!	!	!	!	!
.	.	4e\	-cem	2r	.	2gg\	pa-	.	.
.	.	4f\	.	.	.	.	.	.	.
.	.	2.g\	.	2c/	do-	2.ee\	-cem	.	.
*	*ij	*	*	*	*	*	*	*	*
!	!	!	!	!LO:SIC:v:s=2.Bn/:t=musica ficta?	!	!	!	!	!
1G	do-	.	.	2.B-/	-na	.	.	2r	.
.	.	4f\	.	.	.	4dd\	.	.	.
*	*	*custos:d	*	*	*	*	*	*	*
.	.	2e\	.	.	.	1cc\	.	2g/	Do-
.	.	.	.	4A/	no-	.	.	.	.
=57-	=57-	=57-	=57-	=57-	=57-	=57-	=57-	=57-	=57-
!	!	!	!	!LO:TX:t=P:problem=kreska pseudotaktowa	!	!	!	!	!
2G\	-na	1d	.	1G	-bis	.	.	1g	-na
!	!	!	!	!	!	!LO:TX:t=P:problem=kreska pseudotaktowa	!	!	!
!	!	!	!	!	!	!LO:SIC:v:s=2bn/:t=musica ficta?	!	!	!
2G\	no-	.	.	.	.	2b-/	.	.	.
!	!	!LO:TX:t=P:problem=kreska pseudotaktowa	!	!	!	!	!	!	!
2C/	-bis	0c	.	2r	.	0cc	.	2g/	no-
*	*	*	*	*	*ij	*	*	*	*
1F\	pa-	.	.	2A/	do-	.	.	1a	b(is)
=58-	=58-	=58-	=58-	=58-	=58-	=58-	=58-	=58-	=58-
!	!	!LO:TX:t=P:problem=kreska pseudotaktowa	!	!	!	!LO:TX:t=P:problem=kreska pseudotaktowa	!	!	!
.	.	.	.	2F/	.	.	.	.	.
*	*	*	*	*custos:A	*	*	*	*	*
!LO:TX:t=P:problem=kreska pseudotaktowa	!	!	!	!LO:TX:t=P:problem=kreska pseudotaktowa	!	!	!	!LO:TX:t=P:problem=kreska pseudotaktowa	!
2E/	.	.	.	2G/	-na	.	.	2g/	pa-
!	!	!	!	!LO:LB:g=original	!	!	!	!	!
2F/	.	2r	.	4A/	no-	2r	.	1cc	-c(em)
.	.	.	.	4B-/	.	.	.	.	.
*	*	*	*ij	*	*	*	*ij	*	*ij
2.C/	.	2c/	do-	4c/	.	2g/	do-	.	.
!	!	!	!	!LO:TX:t=P:problem=kreska pseudotaktowa	!	!	!	!	!
.	.	.	.	4d/	.	.	.	.	.
=59-	=59-	=59-	=59-	=59-	=59-	=59-	=59-	=59-	=59-
.	.	2c/	-na	4e\	.	2g/	-na	2r	.
4D/	.	.	.	4f\	.	.	.	.	.
!LO:TX:t=P:problem=kreska pseudotaktowa	!	!	!	!	!	!LO:TX:t=P:problem=kreska pseudotaktowa	!	!LO:TX:t=P:problem=kreska pseudotaktowa	!
2E/	.	2c/	.	2g\	.	2g/	.	2cc\	do-
2.F/	.	1.A	no-	2c/	.	2.a/	no-	2cc\	-na
.	.	.	.	2.f\	.	.	.	2cc\	no-
4E/	.	.	.	.	.	4g/	.	.	.
=60-	=60-	=60-	=60-	=60-	=60-	=60-	=60-	=60-	=60-
!	!	!	!	!	!	!LO:TX:t=P:problem=kreska pseudotaktowa	!	!	!
4D/	.	.	.	.	.	1f	-bis	2dd\	-bis
4C/	.	.	.	4c/	.	.	.	.	.
!	!	!LO:TX:t=P:problem=kreska pseudotaktowa	!	!	!	!	!	!	!
2BB-/	.	2B-/	-bis	1f	.	.	.	2dd\	pa-
!	!	!	!	!	!	!	!	!LO:TX:t=P:problem=kreska pseudotaktowa	!
0C	.	0G	pa-	.	.	2r	.	1cc	-cem
.	.	.	.	4e\	.	2g/	pa-	.	.
!	!	!	!	!LO:TX:t=P:problem=kreska pseudotaktowa	!	!	!	!	!
.	.	.	.	4d\	.	.	.	.	.
=61-	=61-	=61-	=61-	=61-	=61-	=61-	=61-	=61-	=61-
.	.	.	.	1e	.	2g/	.	2r	.
.	.	.	.	.	.	2g/	.	2cc\	do-
1F	.	1F	.	1f	.	2.a/	.	2cc\	-na
.	.	.	.	.	.	.	.	2cc\	no-
.	.	.	.	.	.	4g/	.	.	.
=62-	=62-	=62-	=62-	=62-	=62-	=62-	=62-	=62-	=62-
1BB-	.	2.B-/	.	2d\	.	1f	.	2dd\	-bis
.	.	.	.	1f	-bis	.	.	2dd\	pa-
*	*	*	*	*	*Xij	*	*	*	*
!	!	!LO:TX:t=P:problem=kreska pseudotaktowa	!	!	!	!	!	!	!
.	.	4A/	.	.	.	.	.	.	.
!	!	!	!	!	!	!	!	!LO:TX:t=P:problem=kreska pseudotaktowa	!
0C	.	1G	.	.	.	[y00f;	-cem	1cc	-cem
*	*	*	*	*	*	*	*Xij	*	*
.	.	.	.	4e\	pa-	.	.	.	.
!	!	!	!	!LO:TX:t=P:problem=kreska pseudotaktowa	!	!	!	!	!
.	.	.	.	4d\	.	.	.	.	.
=63-	=63-	=63-	=63-	=63-	=63-	=63-	=63-	=63-	=63-
.	.	1G	.	4e\	-cem	.	.	2r	.
.	.	.	.	4d\	.	.	.	.	.
.	.	.	.	4c/	.	.	.	2cc\	do-
.	.	.	.	4B-/	.	.	.	.	.
!LO:TX:t=P:problem=kreska pseudotaktowa	!	!	!	!LO:TX:t=P:problem=kreska pseudotaktowa	!	!	!	!	!
1F	-cem	2F/	.	0A	.	.	.	2cc\	-na
!	!	!LO:TX:t=P:problem=kreska pseudotaktowa	!	!	!	!	!	!LO:TX:t=P:problem=kreska pseudotaktowa	!
.	.	2c/	.	.	.	.	.	2cc\	no-
=64-	=64-	=64-	=64-	=64-	=64-	=64-	=64-	=64-	=64-
2r	.	2c/	.	.	.	.	.	2.a\	-bis
2F/	do-	2c/	.	.	.	.	.	.	.
.	.	.	.	.	.	.	.	4g/	pa-
2F/	-na	2.A/	.	2r	.	00f_yy	.	2f/	-cem
!LO:TX:t=P:problem=kreska pseudotaktowa	!	!	!	!	!	!	!	!LO:TX:t=P:problem=kreska pseudotaktowa	!
2F/	no-	.	.	2f\	.	.	.	2a\	do-
.	.	4G/	.	.	.	.	.	.	.
=65-	=65-	=65-	=65-	=65-	=65-	=65-	=65-	=65-	=65-
1D	-bis	0F	.	2f\	.	.	.	2a\	-na
.	.	.	.	2f\	.	.	.	2a\	no-
0BB-	pa-	.	.	1.d	.	.	.	1.b-	-bis
=66-	=66-	=66-	=66-	=66-	=66-	=66-	=66-	=66-	=66-
.	.	1F	.	.	.	.	.	.	.
.	.	.	.	4c/	.	.	.	2a\	pa-
.	.	.	.	4B-/	.	.	.	.	.
!LO:N:vis=00	!	!LO:N:vis=00	!	!	!	!	!	!LO:N:vis=00	!
0.F\;<	-cem	0.A;/	-cem	2c/	.	0.f]yy	.	0.a;;\	-cem
.	.	.	.	2d\	.	.	.	.	.
=67-	=67-	=67-	=67-	=67-	=67-	=67-	=67-	=67-	=67-
.	.	.	.	0c;;	.	.	.	.	.
*	*	*	*Xij	*	*	*	*	*	*Xij
==	==	==	==	==	==	==	==	==	==
*-	*-	*-	*-	*-	*-	*-	*-	*-	*-
!!!system-decoration: [(s1,s2,s3,s4,s5)]
!!!RDF**kern: | = vertical stroke
!!!RDF**kern: > = above
!!!RDF**kern: < = below
!!!ENC: Andrzej Gręziak
!!!END: 2022-01-04
!!!ENC: Krzysztof Stępień
!!!END: 2022-01-24
